src/assets/footer/twitter.svg

<svg height="13" viewBox="0 0 16 13" width="16" xmlns="http://www.w3.org/2000/svg"><path d="m1481.5587 198.240332c-.63482.375701-1.33629.648938-2.08603.795136-.59723-.637275-1.45078-1.035468-2.39575-1.035468-1.81133 0-3.28134 1.469482-3.28134 3.28176 0 .257409.0282.506904.08459.747236-2.72811-.137035-5.1465-1.441991-6.76645-3.430041-.28281.486496-.44429 1.05088-.44429 1.651918 0 1.137932.57928 2.142578 1.4606 2.731121-.53742-.015828-1.04451-.164942-1.48795-.409023v.039986c0 1.590689 1.13166 2.917721 2.63456 3.218032-.27512.077056-.56562.115793-.86508.115793-.21147 0-.41781-.019993-.61774-.058313.41781 1.30329 1.62935 2.252539 3.06603 2.277947-1.12311.880523-2.53929 1.405338-4.07679 1.405338-.26486 0-.52674-.014995-.78306-.044985 1.45249.929673 3.17881 1.473231 5.03201 1.473231 6.03851 0 9.3395-4.999904 9.3395-9.337125 0-.142866-.00257-.285316-.00812-.425266.64123-.462754 1.1983-1.040467 1.63661-1.698568-.58783.260741-1.22094.437346-1.88482.516484.67797-.40569 1.19831-1.048797 1.44352-1.815193" fill="#565960" fill-rule="evenodd" opacity=".5" transform="translate(-1466 -198)"/></svg>

<?xml version="1.0" encoding="UTF-8"?>
<svg width="16px" height="13px" viewBox="0 0 16 13" version="1.1" xmlns="http://www.w3.org/2000/svg" xmlns:xlink="http://www.w3.org/1999/xlink">
    <title>C128DF57-14F8-45BD-BE28-6EAEFA2C19A8@2x</title>
    <g id="Design" stroke="none" stroke-width="1" fill="none" fill-rule="evenodd" opacity="0.5">
        <g id="Homepage" transform="translate(-1466.000000, -14651.000000)" fill="#565960">
            <g id="FOOTER" transform="translate(-99.000000, 11359.000000)">
                <g id="♣️-Block_Contact" transform="translate(99.000000, 3094.000000)">
                    <path d="M1481.5587,198.240332 C1480.92388,198.616033 1480.22241,198.88927 1479.47267,199.035468 C1478.87544,198.398193 1478.02189,198 1477.07692,198 C1475.26559,198 1473.79558,199.469482 1473.79558,201.28176 C1473.79558,201.539169 1473.82378,201.788664 1473.88017,202.028996 C1471.15206,201.891961 1468.73367,200.587005 1467.11372,198.598955 C1466.83091,199.085451 1466.66943,199.649835 1466.66943,200.250873 C1466.66943,201.388805 1467.24871,202.393451 1468.13003,202.981994 C1467.59261,202.966166 1467.08552,202.817052 1466.64208,202.572971 L1466.64208,202.612957 C1466.64208,204.203646 1467.77374,205.530678 1469.27664,205.830989 C1469.00152,205.908045 1468.71102,205.946782 1468.41156,205.946782 C1468.20009,205.946782 1467.99375,205.926789 1467.79382,205.888469 C1468.21163,207.191759 1469.42317,208.141008 1470.85985,208.166416 C1469.73674,209.046939 1468.32056,209.571754 1466.78306,209.571754 C1466.5182,209.571754 1466.25632,209.556759 1466,209.526769 C1467.45249,210.456442 1469.17881,211 1471.03201,211 C1477.07052,211 1480.37151,206.000096 1480.37151,201.662875 C1480.37151,201.520009 1480.36894,201.377559 1480.36339,201.237609 C1481.00462,200.774855 1481.56169,200.197142 1482,199.539041 C1481.41217,199.799782 1480.77906,199.976387 1480.11518,200.055525 C1480.79315,199.649835 1481.31349,199.006728 1481.5587,198.240332" id="Twitter"></path>
                </g>
            </g>
        </g>
    </g>
</svg>
